icons/home-7-line.svg

<svg xmlns="http://www.w3.org/2000/svg" width="24" height="24" fill="none"><g clip-path="url(#a)"><g><path fill="#121212" d="M19 21H5C4.73478 21 4.48043 20.8947 4.29289 20.7071C4.10536 20.5196 4 20.2653 4 20V11H1L11.327 1.61204C11.5111 1.44452 11.7511 1.35168 12 1.35168C12.2489 1.35168 12.4889 1.44452 12.673 1.61204L23 11H20V20C20 20.2653 19.8946 20.5196 19.7071 20.7071C19.5196 20.8947 19.2652 21 19 21ZM6 19H18V9.15704L12 3.70304L6 9.15704V19ZM12 15C11.337 15 10.7011 14.7366 10.2322 14.2678C9.76339 13.799 9.5 13.1631 9.5 12.5C9.5 11.837 9.76339 11.2011 10.2322 10.7323C10.7011 10.2634 11.337 10 12 10C12.663 10 13.2989 10.2634 13.7678 10.7323C14.2366 11.2011 14.5 11.837 14.5 12.5C14.5 13.1631 14.2366 13.799 13.7678 14.2678C13.2989 14.7366 12.663 15 12 15Z"/></g></g><defs><clipPath id="a"><rect width="24" height="24" fill="white"/></clipPath></defs></svg>

<svg width="24" height="24" fill="none" xmlns="http://www.w3.org/2000/svg"><g clip-path="url(#a)"><path d="M19 21H5a1 1 0 0 1-1-1v-9H1l10.327-9.388a1 1 0 0 1 1.346 0L23 11h-3v9a1 1 0 0 1-1 1ZM6 19h12V9.157l-6-5.454-6 5.454V19Zm6-4a2.5 2.5 0 1 1 0-5 2.5 2.5 0 0 1 0 5Z" /></g><defs><clipPath id="a"><path fill="#fff" d="M0 0h24v24H0z"/></clipPath></defs></svg>
